icons/ballerina/ballerina-original.svg

<svg xmlns="http://www.w3.org/2000/svg" viewBox="0 0 128 128"><path fill="#46C0BC" d="M29 35.9255V0H59.0817V47.4297L29 35.9255ZM29 62.9204L49.5892 55.0465L29 47.1725V62.9204ZM29 74.1674V128H44.4579L59.0817 80.0637V62.6632L29 74.1674ZM99.5874 35.9255V0H69.5057V47.4297L99.5874 35.9255ZM99.5874 47.1725L78.9982 55.0465L99.5874 62.9204V47.1725ZM69.5057 62.6632V80.0637L84.1295 128H99.5874V74.1674L69.5057 62.6632Z"/></svg>

<svg xmlns="http://www.w3.org/2000/svg" viewBox="0 0 128 128"><path fill="#46C0BC" d="M29 35.925V0h30.082v47.43L29 35.925zm0 26.995l20.59-7.873L29 47.172V62.92zm0 11.247V128h15.458l14.624-47.936v-17.4L29 74.166zm70.587-38.242V0H69.506v47.43l30.081-11.505zm0 11.248l-20.589 7.873 20.59 7.874V47.172zm-30.081 15.49v17.4L84.129 128h15.458V74.167L69.506 62.663z"/></svg>
